X:1
T:Bridegroom (Cutts), 87.87.6
T:Bridegroom (Cutts), 87.87.6
T:Peter Warwick Cutts, 1969
T:© 1969 Hope Publishing Company, Carol Stream, Ilinois 60188
C:Peter Warwick Cutts, 1969
Z:© 1969 Hope Publishing Company, Carol Stream, Ilinois 60188
%%score ( 1 2 ) ( 3 4 )
L:1/8
Q:1/4=110
M:3/4
K:F
V:1 treble 
V:2 treble 
V:3 bass 
V:4 bass 
V:1
 ([DF][EG]) | [FA]2 [CA]2 (GF) | G2 C2 (DE) | (FG) A2 [=B,G]2 x2 | [CG]4 ([EG][^FA]) | %5
 [GB]2 [DB]2 (AG) | A2 D2 (E^F) | (GA) [DB]2 [_EAc]2 | d4 [DG]2 [Ec]2- | [Ec]2 [CE]2 [CF]2 | %10
 B3 (z A) z x2 | [A,F]4 |] %12
V:2
 x2 | x4 =B,2 | C4 C2 | C4 x4 | x6 | x4 ^C2 | D4 D2 | D2 x4 | [D-A]2 x6 | x6 | (B,2 C3 G2 B,) | %11
 x4 |] %12
V:3
 [C,B,]2 | [F,A,]3 [E,G,] [D,F,]2 | [C,E,]4 [B,,G,]2 | F,4 [D,,D,]2 [G,,F,]2 | (F,D,) E,2 [A,C]2 | %5
 [G,B,]3 [F,A,] [_E,G,]2 | [D,^F,]4 [C,A,]2 | G,2 [G,,G,]2 F,,2 | B,,4 [B,,G,-]2 x2 | %9
 G,2 B,2 [D,A,]2 | F,4 z2 E,2 | [F,,F,]4 |] %12
V:4
 x2 | x6 | x6 | A,,2 x6 | C,4 x2 | x6 | x6 | (B,,A,,) x4 | x8 | A,,4 x2 | G,,2 C,4 x2 | x4 |] %12

